web/themes/gesso/dist/images/SLAC_Logo_W.svg

<svg width="173" height="52" viewBox="0 0 173 52" fill="none" xmlns="http://www.w3.org/2000/svg">
<path d="M53.0781 23.883H42.1612V27.5172H53.0781V23.883Z" fill="white"/>
<path d="M53.0781 31.1514H42.1612V50.5149H77.8179V40.5975H53.0781V31.1514Z" fill="white"/>
<path d="M53.0781 0.899625H42.1612V20.2488H53.0781V0.899625Z" fill="white"/>
<path d="M111.34 0.549771H101.28L92.8974 20.2416H119.722L111.34 0.549771Z" fill="white"/>
<path d="M88.2564 31.1514L80.0098 50.5149H91.1409L95.6819 39.3909H116.659L121.2 50.5149H132.61L124.37 31.1514H88.2564Z" fill="white"/>
<path d="M121.278 23.883H91.348L89.8058 27.5172H122.821L121.278 23.883Z" fill="white"/>
<path d="M146.49 25.6894C146.49 29.4521 149.538 32.5009 153.301 32.5009C157.064 32.5009 160.112 29.4521 160.112 25.6894C160.112 21.9267 157.064 18.8779 153.301 18.8779C149.538 18.8708 146.49 21.9267 146.49 25.6894Z" fill="white"/>
<path d="M137.743 27.5172C137.672 26.9175 137.636 26.3177 137.636 25.7108C137.636 25.0896 137.686 24.4827 137.75 23.883H127.633C127.597 24.4899 127.562 25.0968 127.562 25.7108C127.562 26.3177 127.583 26.9246 127.633 27.5172H137.743Z" fill="white"/>
<path d="M153.265 10.0815C158.306 10.0815 162.769 12.4806 165.624 16.179L172.307 8.44651C167.609 3.26293 160.812 0 153.265 0C140.942 0 130.653 8.66785 128.14 20.2416H138.636C140.863 14.3084 146.561 10.0815 153.265 10.0815Z" fill="white"/>
<path d="M165.839 34.9641C162.997 38.8197 158.427 41.3329 153.272 41.3329C146.561 41.3329 140.856 37.099 138.636 31.1514H128.147C130.653 42.7324 140.935 51.4145 153.272 51.4145C161.198 51.4145 168.281 47.8231 173 42.1826L165.839 34.9641Z" fill="white"/>
<path d="M21.3626 20.2416C14.6011 18.4138 12.8233 17.2572 12.8233 14.2084C12.8233 11.7452 15.0295 9.82451 19.2064 9.82451C23.3975 9.82451 27.7171 11.6666 32.1153 14.7154L37.7844 6.49017C32.7436 2.44899 26.589 0.178498 19.3563 0.178498C9.21762 0.185638 1.98489 6.16174 1.98489 15.208C1.98489 17.1858 2.23479 18.8208 2.69174 20.2416H21.3626Z" fill="white"/>
<path d="M20.9913 31.1514C27.0745 32.915 28.424 34.3215 28.424 36.8419C28.424 39.8193 25.7322 41.5828 21.2698 41.5828C15.6007 41.5828 10.9169 39.2409 6.45448 35.5639L0 43.2893C5.94754 48.6085 13.5373 51.236 21.0556 51.236C31.7512 51.236 39.2766 45.7026 39.2766 35.7781C39.2766 34.0074 39.0482 32.5009 38.6198 31.1586H20.9913V31.1514Z" fill="white"/>
<path d="M4.67664 23.883C5.92612 25.3895 7.59686 26.5462 9.62459 27.5172H36.6349C35.4639 26.0821 33.9074 24.8969 31.9939 23.883H4.67664Z" fill="white"/>
</svg>

<svg width="173" height="52" fill="none" xmlns="http://www.w3.org/2000/svg"><path d="M53.078 23.883H42.161v3.634h10.917v-3.634ZM53.078 31.151H42.161v19.364h35.657v-9.918h-24.74v-9.446ZM53.078.9H42.161v19.349h10.917V.899ZM111.34.55h-10.06l-8.383 19.692h26.825L111.34.55ZM88.256 31.151 80.01 50.515h11.13l4.542-11.124h20.977l4.541 11.124h11.41l-8.24-19.364H88.256ZM121.278 23.883h-29.93l-1.542 3.634h33.015l-1.543-3.634ZM146.49 25.69a6.81 6.81 0 0 0 6.811 6.81 6.81 6.81 0 0 0 6.811-6.81 6.81 6.81 0 0 0-6.811-6.812c-3.763-.007-6.811 3.049-6.811 6.811ZM137.743 27.517c-.071-.6-.107-1.2-.107-1.806 0-.621.05-1.228.114-1.828h-10.117a30.775 30.775 0 0 0-.071 1.828c0 .607.021 1.214.071 1.806h10.11ZM153.265 10.082c5.041 0 9.504 2.399 12.359 6.097l6.683-7.732C167.609 3.263 160.812 0 153.265 0c-12.323 0-22.612 8.668-25.125 20.242h10.496c2.227-5.934 7.925-10.16 14.629-10.16ZM165.839 34.964c-2.842 3.856-7.412 6.369-12.567 6.369-6.711 0-12.416-4.234-14.636-10.182h-10.489c2.506 11.581 12.788 20.263 25.125 20.263 7.926 0 15.009-3.59 19.728-9.231l-7.161-7.219ZM21.363 20.242c-6.762-1.828-8.54-2.985-8.54-6.034 0-2.463 2.207-4.383 6.383-4.383 4.192 0 8.511 1.842 12.91 4.89l5.668-8.225C32.744 2.45 26.59.178 19.356.178 9.218.186 1.985 6.162 1.985 15.208c0 1.978.25 3.613.707 5.034h18.67ZM20.991 31.151c6.084 1.764 7.433 3.17 7.433 5.69 0 2.978-2.692 4.742-7.154 4.742-5.67 0-10.353-2.342-14.816-6.02L0 43.29c5.948 5.32 13.537 7.947 21.056 7.947 10.695 0 18.22-5.533 18.22-15.458 0-1.77-.228-3.277-.656-4.62H20.99v-.007ZM4.677 23.883c1.25 1.507 2.92 2.663 4.948 3.634h27.01c-1.171-1.435-2.728-2.62-4.641-3.634H4.677Z" fill="#fff"/></svg>
